src/icons/outline/symbols/calendar-check.svg

<svg width="24" height="24" viewBox="0 0 24 24" fill="none" xmlns="http://www.w3.org/2000/svg">
<g clip-path="url(#clip0_6019_1093)">
<path d="M14.8096 12.9102C15.0596 12.5802 15.5304 12.5098 15.8604 12.7598C16.1902 13.0097 16.2596 13.4796 16.0098 13.8096L11.9102 19.2803C11.7802 19.4501 11.5802 19.56 11.3604 19.5801H11.3096C11.1099 19.58 10.9201 19.5001 10.7803 19.3604L8.0498 16.6299C7.76006 16.34 7.76012 15.8603 8.0498 15.5703C8.3398 15.2803 8.82035 15.2803 9.11035 15.5703L11.2305 17.6904L14.8096 12.9102Z" fill="#3C3B44"/>
<path fill-rule="evenodd" clip-rule="evenodd" d="M16.7803 1C17.1902 1.00015 17.5303 1.33009 17.5303 1.75V3.73047H20.8799C21.7298 3.73047 22.9998 4.28991 23 5.84961V20.8799C23 21.7299 22.4299 23 20.8799 23H3.11035C2.26035 23 1 22.4299 1 20.8799V5.84961C1.00017 4.99961 1.56059 3.73047 3.11035 3.73047H6.45996V1.75C6.45996 1.33001 6.78998 1.00002 7.20996 1C7.62996 1 7.95996 1.33 7.95996 1.75V3.73047H16.0303V1.75C16.0303 1.33 16.3703 1 16.7803 1ZM2.5 20.8799C2.5 21.2799 2.71012 21.49 3.12012 21.5H20.8799C21.2798 21.5 21.48 21.29 21.5 20.8701V10.7002H2.5V20.8799ZM3.11035 5.23047C2.71035 5.23047 2.51 5.44035 2.5 5.86035V9.2002H21.5V5.84961C21.4999 5.4499 21.2799 5.24051 20.8701 5.23047H17.5303V6.53027C17.5301 6.95005 17.2001 7.28013 16.7803 7.28027C16.3604 7.28027 16.0304 6.95014 16.0303 6.53027V5.23047H7.95996V6.53027C7.95981 6.95014 7.61987 7.28027 7.20996 7.28027C6.80007 7.28025 6.46011 6.95013 6.45996 6.53027V5.23047H3.11035Z" fill="#3C3B44"/>
</g>
<defs>
<clipPath id="clip0_6019_1093">
<rect width="24" height="24" fill="white"/>
</clipPath>
</defs>
</svg>

<svg xmlns="http://www.w3.org/2000/svg" width="24" height="24" fill="none" viewBox="0 0 24 24"><g fill="currentColor" clip-path="url(#a)"><path d="M14.81 12.91a.75.75 0 0 1 1.2.9l-4.1 5.47c-.13.17-.33.28-.55.3h-.05a.75.75 0 0 1-.53-.22l-2.73-2.73a.755.755 0 0 1 0-1.06c.29-.29.77-.29 1.06 0l2.12 2.12z"/><path fill-rule="evenodd" d="M16.78 1c.41 0 .75.33.75.75v1.98h3.35c.85 0 2.12.56 2.12 2.12v15.03c0 .85-.57 2.12-2.12 2.12H3.11C2.26 23 1 22.43 1 20.88V5.85c0-.85.56-2.12 2.11-2.12h3.35V1.75c0-.42.33-.75.75-.75s.75.33.75.75v1.98h8.07V1.75c0-.42.34-.75.75-.75M2.5 20.88c0 .4.21.61.62.62h17.76c.4 0 .6-.21.62-.63V10.7h-19zm.61-15.65c-.4 0-.6.21-.61.63V9.2h19V5.85c0-.4-.22-.61-.63-.62h-3.34v1.3c0 .42-.33.75-.75.75s-.75-.33-.75-.75v-1.3H7.96v1.3a.75.75 0 1 1-1.5 0v-1.3z" clip-rule="evenodd"/></g><defs><clipPath id="a"><path fill="currentColor" d="M0 0h24v24H0z"/></clipPath></defs></svg>
